public/cards/3-S.svg

<?xml version="1.0" encoding="UTF-8"?>
<svg width="360px" height="540px" viewBox="0 0 360 540" version="1.1" xmlns="http://www.w3.org/2000/svg" xmlns:xlink="http://www.w3.org/1999/xlink">
    <!-- Generator: Sketch 55.2 (78181) - https://sketchapp.com -->
    <title>3-S</title>
    <desc>Created with Sketch.</desc>
    <g id="Page-1" stroke="none" stroke-width="1" fill="none" fill-rule="evenodd">
        <g id="English_pattern_playing_cards_deck" transform="translate(-780.000000, -1711.000000)" fill-rule="nonzero">
            <g id="3-S" transform="translate(780.000000, 1710.637800)">
                <rect id="rect6472-59" stroke="#000000" stroke-width="0.99999976" fill="#FFFFFF" x="0.5" y="0.86218" width="359" height="539" rx="29.944447"></rect>
                <path d="M30,30.36208 C24.46,30.36208 20,34.82208 20,40.36208 L20,45.36208 L25,45.36208 L25,40.36208 C25,37.59208 27.23,35.36208 30,35.36208 C32.77,35.36208 35,37.59208 35,40.36208 L35,45.36208 C35,48.13208 32.77,50.36208 30,50.36208 L25,50.36208 L25,55.36208 L30,55.36208 C32.77,55.36208 35,57.59208 35,60.36208 L35,70.36208 C35,73.13208 32.77,75.36208 30,75.36208 C27.23,75.36208 25,73.13208 25,70.36208 L25,65.36208 L20,65.36208 L20,70.36208 C20,75.90208 24.46,80.36208 30,80.36208 C35.54,80.36208 40,75.90208 40,70.36208 L40,60.36208 C40,57.35848 38.67705,54.69208 36.59375,52.86208 C38.67705,51.03208 40,48.36568 40,45.36208 L40,40.36208 C40,34.82208 35.54,30.36208 30,30.36208 Z" id="rect3163-5-1-4-3-4-0-6" fill="#000000"></path>
                <path d="M330,510.3622 C335.54,510.3622 340,505.9022 340,500.3622 L340,495.3622 L335,495.3622 L335,500.3622 C335,503.1322 332.77,505.3622 330,505.3622 C327.23,505.3622 325,503.1322 325,500.3622 L325,495.3622 C325,492.5922 327.23,490.3622 330,490.3622 L335,490.3622 L335,485.36218 L330,485.36218 C327.23,485.36218 325,483.13218 325,480.36216 L325,470.36216 C325,467.59216 327.23,465.36216 330,465.36216 C332.77,465.36216 335,467.59216 335,470.36216 L335,475.36216 L340,475.36216 L340,470.36216 C340,464.82216 335.54,460.36216 330,460.36216 C324.46,460.36216 320,464.82216 320,470.36216 L320,480.36216 C320,483.36578 321.32295,486.03218 323.40625,487.8622 C321.32295,489.6922 320,492.3586 320,495.3622 L320,500.3622 C320,505.9022 324.46,510.3622 330,510.3622 L330,510.3622 Z" id="rect3163-5-1-4-3-4-0-4-3" fill="#000000"></path>
                <path d="M185,101.36218 C187,105.36218 192,111.36218 197,111.36218 C206,111.36218 210,103.36218 210,93.36218 C210,83.36218 206,74.36218 197,74.36218 C192,74.36218 189,79.36218 186,82.36218 C185,83.36218 184,82.36218 185,81.36218 C188,78.36218 193,70.36218 193,63.36218 C193,55.36218 188,45.36218 180,45.36218 C172,45.36218 167,55.36218 167,63.36218 C167,70.36218 172,78.36218 175,81.36218 C176,82.36218 175,83.36218 174,82.36218 C171,79.36218 168,74.36218 163,74.36218 C154,74.36218 150,83.36218 150,93.36218 C150,103.36218 154,111.36218 163,111.36218 C168,111.36218 173,105.36218 175,101.36218 C176,100.36218 176,101.36218 176,102.36218 C175,110.36218 175,112.36218 174,118.36218 C173,124.36218 170,135.36218 170,135.36218 C175,133.36218 185,133.36218 190,135.36218 C190,135.36218 187,124.36218 186,118.36218 C185,112.36218 185,110.36218 184,102.36218 C184,101.36218 184,100.36218 185,101.36218 Z" id="path3037-42" fill="#000000"></path>
                <path d="M185,281.36218 C187,285.36218 192,291.36218 197,291.36218 C206,291.36218 210,283.36218 210,273.36218 C210,263.36218 206,254.36218 197,254.36218 C192,254.36218 189,259.36218 186,262.36218 C185,263.36218 184,262.36218 185,261.36218 C188,258.36218 193,250.36218 193,243.36218 C193,235.36218 188,225.36218 180,225.36218 C172,225.36218 167,235.36218 167,243.36218 C167,250.36218 172,258.36218 175,261.36218 C176,262.36218 175,263.36218 174,262.36218 C171,259.36218 168,254.36218 163,254.36218 C154,254.36218 150,263.36218 150,273.36218 C150,283.36218 154,291.36218 163,291.36218 C168,291.36218 173,285.36218 175,281.36218 C176,280.36218 176,281.36218 176,282.36218 C175,290.36218 175,292.36218 174,298.36218 C173,304.36218 170,315.36218 170,315.36218 C175,313.36218 185,313.36218 190,315.36218 C190,315.36218 187,304.36218 186,298.36218 C185,292.36218 185,290.36218 184,282.36218 C184,281.36218 184,280.36218 185,281.36218 Z" id="path3037-1-88" fill="#000000"></path>
                <path d="M185,439.3622 C187,435.3622 192,429.3622 197,429.3622 C206,429.3622 210,437.3622 210,447.3622 C210,457.3622 206,466.3622 197,466.3622 C192,466.3622 189,461.3622 186,458.3622 C185,457.3622 184,458.3622 185,459.3622 C188,462.3622 193,470.3622 193,477.3622 C193,485.3622 188,495.3622 180,495.3622 C172,495.3622 167,485.3622 167,477.3622 C167,470.3622 172,462.3622 175,459.3622 C176,458.3622 175,457.3622 174,458.3622 C171,461.3622 168,466.3622 163,466.3622 C154,466.3622 150,457.3622 150,447.3622 C150,437.3622 154,429.3622 163,429.3622 C168,429.3622 173,435.3622 175,439.3622 C176,440.3622 176,439.3622 176,438.3622 C175,430.3622 175,428.3622 174,422.3622 C173,416.3622 170,405.36218 170,405.36218 C175,407.36218 185,407.36218 190,405.36218 C190,405.36218 187,416.3622 186,422.3622 C185,428.3622 185,430.3622 184,438.3622 C184,439.3622 184,440.3622 185,439.3622 Z" id="path3037-7-75" fill="#000000"></path>
                <path d="M32.5,118.36218 C33.5,120.36218 36,123.36218 38.5,123.36218 C43,123.36218 45,119.36218 45,114.36218 C45,109.36218 43,104.86218 38.5,104.86218 C36,104.86218 34.5,107.36218 33,108.86218 C32.5,109.36218 32,108.86218 32.5,108.36218 C34,106.86218 36.5,102.86218 36.5,99.36218 C36.5,95.36218 34,90.36218 30,90.36218 C26,90.36218 23.5,95.36218 23.5,99.36218 C23.5,102.86218 26,106.86218 27.5,108.36218 C28,108.86218 27.5,109.36218 27,108.86218 C25.5,107.36218 24,104.86218 21.5,104.86218 C17,104.86218 15,109.36218 15,114.36218 C15,119.36218 17,123.36218 21.5,123.36218 C24,123.36218 26.5,120.36218 27.5,118.36218 C28,117.86218 28,118.36218 28,118.86218 C27.5,122.86218 27.5,123.86218 27,126.86218 C26.5,129.86218 25,135.36218 25,135.36218 C27.5,134.36218 32.5,134.36218 35,135.36218 C35,135.36218 33.5,129.86218 33,126.86218 C32.5,123.86218 32.5,122.86218 32,118.86218 C32,118.36218 32,117.86218 32.5,118.36218 Z" id="path3037-1-4-8" fill="#000000"></path>
                <path d="M332.5,422.36218 C333.5,420.36218 336,417.36218 338.5,417.36218 C343,417.36218 345,421.36218 345,426.36218 C345,431.36218 343,435.86218 338.5,435.86218 C336,435.86218 334.5,433.36218 333,431.86218 C332.5,431.36218 332,431.86218 332.5,432.36218 C334,433.86218 336.5,437.86218 336.5,441.36218 C336.5,445.36218 334,450.36218 330,450.36218 C326,450.36218 323.5,445.36218 323.5,441.36218 C323.5,437.86218 326,433.86218 327.5,432.36218 C328,431.86218 327.5,431.36218 327,431.86218 C325.5,433.36218 324,435.86218 321.5,435.86218 C317,435.86218 315,431.36218 315,426.36218 C315,421.36218 317,417.36218 321.5,417.36218 C324,417.36218 326.5,420.36218 327.5,422.36218 C328,422.86218 328,422.36218 328,421.86218 C327.5,417.86218 327.5,416.86218 327,413.86218 C326.5,410.86218 325,405.36218 325,405.36218 C327.5,406.36218 332.5,406.36218 335,405.36218 C335,405.36218 333.5,410.86218 333,413.86218 C332.5,416.86218 332.5,417.86218 332,421.86218 C332,422.36218 332,422.86218 332.5,422.36218 Z" id="path3037-1-0-1" fill="#000000"></path>
            </g>
        </g>
    </g>
</svg>

<svg width="360" height="540" xmlns="http://www.w3.org/2000/svg"><g transform="translate(0 -.362)" fill-rule="nonzero" fill="none"><rect stroke="#000" fill="#FFF" x=".5" y=".862" width="359" height="539" rx="29.944"/><path d="M30 30.362c-5.54 0-10 4.46-10 10v5h5v-5c0-2.77 2.23-5 5-5s5 2.23 5 5v5c0 2.77-2.23 5-5 5h-5v5h5c2.77 0 5 2.23 5 5v10c0 2.77-2.23 5-5 5s-5-2.23-5-5v-5h-5v5c0 5.54 4.46 10 10 10s10-4.46 10-10v-10c0-3.004-1.323-5.67-3.406-7.5 2.083-1.83 3.406-4.496 3.406-7.5v-5c0-5.54-4.46-10-10-10zM330 510.362c5.54 0 10-4.46 10-10v-5h-5v5c0 2.77-2.23 5-5 5s-5-2.23-5-5v-5c0-2.77 2.23-5 5-5h5v-5h-5c-2.77 0-5-2.23-5-5v-10c0-2.77 2.23-5 5-5s5 2.23 5 5v5h5v-5c0-5.54-4.46-10-10-10s-10 4.46-10 10v10c0 3.004 1.323 5.67 3.406 7.5-2.083 1.83-3.406 4.497-3.406 7.5v5c0 5.54 4.46 10 10 10zM185 101.362c2 4 7 10 12 10 9 0 13-8 13-18s-4-19-13-19c-5 0-8 5-11 8-1 1-2 0-1-1 3-3 8-11 8-18 0-8-5-18-13-18s-13 10-13 18c0 7 5 15 8 18 1 1 0 2-1 1-3-3-6-8-11-8-9 0-13 9-13 19s4 18 13 18c5 0 10-6 12-10 1-1 1 0 1 1-1 8-1 10-2 16s-4 17-4 17c5-2 15-2 20 0 0 0-3-11-4-17s-1-8-2-16c0-1 0-2 1-1zM185 281.362c2 4 7 10 12 10 9 0 13-8 13-18s-4-19-13-19c-5 0-8 5-11 8-1 1-2 0-1-1 3-3 8-11 8-18 0-8-5-18-13-18s-13 10-13 18c0 7 5 15 8 18 1 1 0 2-1 1-3-3-6-8-11-8-9 0-13 9-13 19s4 18 13 18c5 0 10-6 12-10 1-1 1 0 1 1-1 8-1 10-2 16s-4 17-4 17c5-2 15-2 20 0 0 0-3-11-4-17s-1-8-2-16c0-1 0-2 1-1zM185 439.362c2-4 7-10 12-10 9 0 13 8 13 18s-4 19-13 19c-5 0-8-5-11-8-1-1-2 0-1 1 3 3 8 11 8 18 0 8-5 18-13 18s-13-10-13-18c0-7 5-15 8-18 1-1 0-2-1-1-3 3-6 8-11 8-9 0-13-9-13-19s4-18 13-18c5 0 10 6 12 10 1 1 1 0 1-1-1-8-1-10-2-16s-4-17-4-17c5 2 15 2 20 0 0 0-3 11-4 17s-1 8-2 16c0 1 0 2 1 1zM32.5 118.362c1 2 3.5 5 6 5 4.5 0 6.5-4 6.5-9s-2-9.5-6.5-9.5c-2.5 0-4 2.5-5.5 4-.5.5-1 0-.5-.5 1.5-1.5 4-5.5 4-9 0-4-2.5-9-6.5-9s-6.5 5-6.5 9c0 3.5 2.5 7.5 4 9 .5.5 0 1-.5.5-1.5-1.5-3-4-5.5-4-4.5 0-6.5 4.5-6.5 9.5s2 9 6.5 9c2.5 0 5-3 6-5 .5-.5.5 0 .5.5-.5 4-.5 5-1 8s-2 8.5-2 8.5c2.5-1 7.5-1 10 0 0 0-1.5-5.5-2-8.5s-.5-4-1-8c0-.5 0-1 .5-.5zM332.5 422.362c1-2 3.5-5 6-5 4.5 0 6.5 4 6.5 9s-2 9.5-6.5 9.5c-2.5 0-4-2.5-5.5-4-.5-.5-1 0-.5.5 1.5 1.5 4 5.5 4 9 0 4-2.5 9-6.5 9s-6.5-5-6.5-9c0-3.5 2.5-7.5 4-9 .5-.5 0-1-.5-.5-1.5 1.5-3 4-5.5 4-4.5 0-6.5-4.5-6.5-9.5s2-9 6.5-9c2.5 0 5 3 6 5 .5.5.5 0 .5-.5-.5-4-.5-5-1-8s-2-8.5-2-8.5c2.5 1 7.5 1 10 0 0 0-1.5 5.5-2 8.5s-.5 4-1 8c0 .5 0 1 .5.5z" fill="#000"/></g></svg>
